X:669
T: "Der Wunderarzt"
N: Z1350
O: Europa, Mitteleuropa, Deutschland
R: Zech -, Schalks - Lied
M: 2/4
L: 1/16
K: C
G,2 | C2G,2G,2G,2 | A,2G,2G,4
G,2G,2A,2B,2 | C4z2
G,2 | C2G,2G,2G,2 | A,2G,2G,4
G,2G,G,A,2B,2 | C4z2
C2 | D2D2D2D2 | D2D2D2z
D | D2E2D2C2 | B,2A,2G,2
G,2 | C2G,2G,2G,2 | A,2G,2G,2z2
G,2G,G,A,2B,2 | C4z2

